!! 00000] TT[WS
!!!OTL: Caochuan jiejian
!!!ARE: Asia, China, Shanxi Jinbei
!! Ethnic Group: Han
!! WII, 194 (2)
!!!SCT: J0692
!!!YEM: Copyright 1995, estate of Helmut Schaffrath.
**kern
*ICvox
*Ivox
*M2/4
*k[b-]
*F:
{8dd
8dd
8dd
8a
=1
8cc
4cc
8ff
=2
8dd
8cc
8a
8d
=3
2f}
=4
{8dd
4f
8g
=5
8a
8dd
8cc
8a
=6
8g
8cc
8a
8g
=7
8f
8d
4f}
=8
{8f
8g
8cc
8a
=9
8g
8a
8g
8f
=10
8g
8g
8g
8c
=11
8d
8d
8f
8d
=12
2c}
==
!!!AGN: Xiaodiao, Shidiao. XÅshi
!!!ONB: ESAC (Essen Associative Code) Database: CHINA
!!!AMT: simple duple
!!!AIN: vox
!!!EED: Helmut Schaffrath
!!!EEV: 1.0
*-
